X:79
T: Der Reiter zu Braunschweig und das Maedchen
N: A0429
O: Europa, Mitteleuropa, Deutschland
N: Souterliedekens 1540 ad Ps. 84.
R: Romanze, Ballade, Lied, Kriegslied
M: 4/2
L: 1/4
K: C
C2C2C2 | F2C2D2E2 | F4z2
F2 | F2F2G3F | E2F2D2D2 | C4z4 | z2
F2F2C2 | C3_B,A,2B,2 | G,4F,4 | z2
F2F2G2 | A2F2G2G2 | G2FED4 | z2
G2G2G2 | F2EDC2E2 | D4C4 | z2

